src/components/content1/frame.svg

<svg viewBox="0 0 385 393" fill="none" xmlns="http://www.w3.org/2000/svg"><path d="m89.1109 297.807 29.7331-49.562-66.5889-44.882-34.3884 57.321 55.0777 37.123h16.1665Z" fill="#F0F0F0"/><path fill-rule="evenodd" clip-rule="evenodd" d="M56.9778 312.048h73.2442v-14.991H56.9778v14.991Zm72.2932-.967H57.929v-13.056h71.342v13.056Z" fill="#579148"/><path d="M122.044 309.8c2.553 0 4.623-2.181 4.623-4.872s-2.07-4.872-4.623-4.872c-2.552 0-4.622 2.181-4.622 4.872s2.07 4.872 4.622 4.872ZM107.822 309.8c2.553 0 4.622-2.181 4.622-4.872s-2.069-4.872-4.622-4.872-4.622 2.181-4.622 4.872 2.069 4.872 4.622 4.872ZM95.0221 309.8c2.5528 0 4.6222-2.181 4.6222-4.872s-2.0694-4.872-4.6222-4.872c-2.5528 0-4.6222 2.181-4.6222 4.872s2.0694 4.872 4.6222 4.872ZM81.5111 309.8c2.5528 0 4.6223-2.181 4.6223-4.872s-2.0695-4.872-4.6223-4.872c-2.5527 0-4.6222 2.181-4.6222 4.872s2.0695 4.872 4.6222 4.872ZM67.9999 309.8c2.5528 0 4.6222-2.181 4.6222-4.872s-2.0694-4.872-4.6222-4.872c-2.5528 0-4.6222 2.181-4.6222 4.872s2.0694 4.872 4.6222 4.872Z" fill="#40CE81"/><path d="M218.729 138.858v-38.284h18.16V81.9361H148V175.63h75.986v-9.161c0-3.448 1.299-6.756 3.613-9.195 2.314-2.438 5.451-3.808 8.723-3.808h.567v-14.608h-18.16ZM33.9729 7.43466 62.26236822.00001583l7.05335926 29.81875048-28.28946822 7.43464416z" fill="#F0F0F0"/><path fill="#40CE81" d="M257.511 324.041h59.7333v12.7424H257.511z"/><path fill="#F0F0F0" d="M241.867 259.58h87.4667v11.9928H241.867z"/><path fill="#579148" d="M.0888672 392.25h372.622v.749552h-372.622z"/><path fill-rule="evenodd" clip-rule="evenodd" d="M235.492 393h108.75c7.079-.009 12.817-6.053 12.825-13.512V166.655c-.008-7.459-5.746-13.503-12.825-13.512h-108.75c-7.08.009-12.817 6.053-12.825 13.512v212.833c.008 7.459 5.745 13.503 12.825 13.512Zm-11.869-226.345c.008-6.902 5.317-12.496 11.869-12.504h108.75c6.551.008 11.861 5.602 11.868 12.504v212.833c-.007 6.903-5.317 12.496-11.868 12.504h-108.75c-6.552-.008-11.861-5.601-11.869-12.504V166.655Z" fill="#579148"/><path fill-rule="evenodd" clip-rule="evenodd" d="M274.578 160.639c0 1.656 1.273 2.998 2.844 2.998 1.571-.002 2.843-1.343 2.845-2.998 0-1.656-1.274-2.998-2.845-2.998-1.571 0-2.844 1.342-2.844 2.998Zm.948 0c0-1.104.849-1.999 1.896-1.999 1.047.001 1.896.896 1.897 1.999 0 1.104-.849 1.999-1.897 1.999-1.047 0-1.896-.895-1.896-1.999Z" fill="#579148"/><path fill="#579148" d="M284.533 159.889h21.3333v.749552H284.533z"/><path d="M349.244 167.385v40.476c-21.207-.001-38.399-18.122-38.4-40.476h38.4Z" fill="#40CE81"/><path fill-rule="evenodd" clip-rule="evenodd" d="M231.2 379.508h118.044V167.385H231.2v212.123Zm117.089-1.008H232.156V168.393h116.133V378.5Z" fill="#579148"/><path opacity=".1" d="M321.156 205.612c7.265 0 13.155-6.208 13.155-13.867 0-7.658-5.89-13.866-13.155-13.866-7.266 0-13.156 6.208-13.156 13.866 0 7.659 5.89 13.867 13.156 13.867Z" fill="#000"/><path d="M319.022 207.111c7.266 0 13.156-6.208 13.156-13.866 0-7.659-5.89-13.867-13.156-13.867-7.265 0-13.155 6.208-13.155 13.867 0 7.658 5.89 13.866 13.155 13.866Z" fill="#40CE81"/><path fill="#579148" d="M236.178 175.63h18.4889v6.74597H236.178zM246.133 243.09h18.4889v6.74597H246.133z"/><path fill-rule="evenodd" clip-rule="evenodd" d="M246.844 269.324h88.178v-12.742h-88.178v12.742Zm87.22-.98h-86.261v-10.782h86.261v10.782Z" fill="#579148"/><path fill="#F0F0F0" d="M241.867 297.807h87.4667v11.9928H241.867z"/><path fill="#579148" d="M246.133 280.567h18.4889v6.74597H246.133z"/><path fill-rule="evenodd" clip-rule="evenodd" d="M246.844 307.551h88.178v-12.742h-88.178v12.742Zm87.22-.98h-86.261v-10.782h86.261v10.782ZM260.355 333.785H320.8v-13.492h-60.445v13.492Zm59.486-.963h-58.526v-11.565h58.526v11.565Z" fill="#579148"/><path d="M331.467 264.452c-.001 2.055-1.224 3.889-3.058 4.584-1.834.696-3.885.103-5.127-1.481l-.004-.005c-1.21-1.546-1.397-3.716-.473-5.467.925-1.752 2.773-2.728 4.657-2.459 1.884.268 3.42 1.726 3.871 3.673 0 .001 0 .003.001.004s.002.001.003.001c.086.377.129.763.13 1.15Z" fill="#40CE81"/><path opacity=".1" d="M331.467 264.171c-.001 2.173-1.255 4.113-3.137 4.849-1.881.735-3.985.109-5.259-1.567l-.005-.005c-.087-.398-.132-.806-.133-1.216.001-2.173 1.255-4.113 3.137-4.849 1.881-.735 3.985-.109 5.259 1.567 0 .001.001.002.002.003 0 .001.002.002.003.002.088.398.132.806.133 1.216Z" fill="#000"/><path d="M328.978 271.573c2.552 0 4.622-2.182 4.622-4.872 0-2.691-2.07-4.873-4.622-4.873-2.553 0-4.623 2.182-4.623 4.873 0 2.69 2.07 4.872 4.623 4.872ZM331.467 301.929c-.001 2.055-1.224 3.889-3.058 4.585-1.834.695-3.885.103-5.127-1.481l-.004-.005c-1.21-1.547-1.397-3.716-.473-5.468.925-1.751 2.773-2.727 4.657-2.459 1.884.269 3.42 1.726 3.871 3.674 0 .001 0 .002.001.003s.002.002.003.002c.086.376.129.762.13 1.149Z" fill="#40CE81"/><path opacity=".1" d="M331.467 302.398c-.001 2.173-1.255 4.113-3.137 4.849-1.881.735-3.985.109-5.259-1.567l-.005-.005c-.087-.398-.132-.806-.133-1.216.001-2.173 1.255-4.113 3.137-4.849 1.881-.735 3.985-.109 5.259 1.567 0 .001.001.002.002.003 0 .001.002.002.003.002.088.398.132.806.133 1.216Z" fill="#000"/><path d="M328.978 309.8c2.552 0 4.622-2.181 4.622-4.872s-2.07-4.872-4.622-4.872c-2.553 0-4.623 2.181-4.623 4.872s2.07 4.872 4.623 4.872Z" fill="#40CE81"/><path fill="#F0F0F0" d="M224.089 105.922h24.8889v26.2343H224.089z"/><path fill-rule="evenodd" clip-rule="evenodd" d="M315.111 118.664c0 3.312 2.547 5.996 5.689 5.996 3.14-.003 5.685-2.686 5.689-5.996 0-3.312-2.547-5.996-5.689-5.996s-5.689 2.684-5.689 5.996Zm.948 0c0-2.76 2.123-4.997 4.741-4.997 2.617.003 4.738 2.239 4.741 4.997 0 2.76-2.123 4.997-4.741 4.997-2.618 0-4.741-2.237-4.741-4.997ZM182.844 209.36h12.089v-12.743h-12.089v12.743Zm11.159-.98h-10.229v-10.782h10.229v10.782ZM372 307.551h12.089v-12.742H372v12.742Zm11.159-.98H372.93v-10.782h10.229v10.782Z" fill="#579148"/><path d="m138.756 219.782 2.131 1.218 7.254 4.15 11.71 6.696 6.824-13.438c1.298-2.551 1.587-5.544.804-8.321-.784-2.777-2.576-5.108-4.981-6.481-5.222-2.993-11.667-2.065-15.949 2.297l-.003.003c-1.027 1.047-1.894 2.257-2.568 3.588l-5.222 10.288Z" fill="#134926"/><path d="m170.756 354.833-1.373 17.15-5.15.779-3.433-19.488 9.956 1.559Z" fill="#FFB8B8"/><path d="M162.473 373.226s6.809-3.847 8.242-.77c0 0-1.075 9.232 3.226 10.386 4.3 1.154 6.092 9.232 0 10.001-6.093.769-10.035-1.539-12.185-1.539-2.151 0 0-8.077 0-8.077l.717-10.001Z" fill="#134926"/><path d="m127.378 354.833 1.373 17.15 5.149.779 3.433-19.488-9.955 1.559Z" fill="#FFB8B8"/><path d="M136.372 373.226s-6.809-3.847-8.243-.77c0 0 1.075 9.232-3.225 10.386-4.301 1.154-6.093 9.232 0 10.001 6.092.769 10.035-1.539 12.185-1.539 2.15 0 0-8.077 0-8.077l-.717-10.001Z" fill="#134926"/><path d="M156.178 222.852c5.302 0 9.6-4.531 9.6-10.119 0-5.589-4.298-10.119-9.6-10.119s-9.6 4.53-9.6 10.119c0 5.588 4.298 10.119 9.6 10.119Z" fill="#FFB8B8"/><path d="m127.378 231.696 7.462 12.514 8.885-.759 14.57 1.138s1.375-2.935 2.498-5.79c.615-1.426 1.088-2.917 1.411-4.448.355-2.655-4.62-5.309-4.62-5.309s-.195-.038-.522-.121c-.434-.11-1.102-.292-1.834-.558-1.652-.599-3.639-1.615-4.041-3.113-.71-2.654 4.62-6.446 4.62-6.446l-6.396-6.446s-5.683 8.422-12.584 10.34c-.4.113-.806.202-1.215.266-.022.004-.039.007-.061.011-7.463 1.138-8.173 8.721-8.173 8.721Z" fill="#FFB8B8"/><path d="m131.121 228.848-4.116 3.402s-3.367 16.252-2.245 20.788c1.123 4.535-.374 8.693-.374 9.449 0 .756-3.367 29.103-3.367 29.103s-6.735 15.118.374 13.606c7.109-1.512 4.49-16.63 4.49-16.63l8.606-26.457v-22.3l-3.368-10.961ZM159.41 231.846l2.91 2.249 1.454 31.478 10.91 26.981s8.001 13.116 2.91 13.491c-5.092.374-8.365-13.491-8.365-13.491l-9.819-25.857-1.454-25.107 1.454-9.744Z" fill="#FFB8B8"/><path d="M141.411 233.346s7.173 5.305 18.65 3.41c0 0 3.227 6.821 1.434 10.61-1.793 3.789 2.152 12.884 2.869 14.021.718 1.136 8.966 24.63 11.836 50.019 2.869 25.388 10.759 42.819 3.945 45.093-6.815 2.273-20.802 4.926-22.236 2.652-1.435-2.274-3.587-58.734-3.587-58.734l-3.945 21.599s5.38 36.756 1.435 37.514c-3.945.758-28.692-1.516-27.974-6.063.717-4.547 7.89-28.42 7.89-28.42s-.359-47.745 6.814-56.84c0 0 2.869-4.926-1.076-11.368-3.945-6.442-3.586-16.673-3.586-16.673s2.869 0 7.531-6.82Z" fill="#134926"/><path d="m135.2 223.116 5.746 13.977 1.365-.754-5.944-13.487-1.167.264ZM155.111 228.848l4.588 10.494 1.101-.102-.374-1.786-3.44-8.051c-.444-.109-1.127-.29-1.875-.555ZM140.446 220.621c.703 2.448 2.695 4.201 5.054 4.449 2.359.249 4.626-1.056 5.753-3.311-4.527-6.402-.644-10.423 6.709-13.465 1.133-2.274.883-5.063-.633-7.059-4.105-.568-8.228.9-11.219 3.994l-.003.004-5.225 10.48c-.752 1.505-.909 3.275-.436 4.908Z" fill="#134926"/><path d="M151.2 216.106c.589 0 1.067-1.007 1.067-2.249 0-1.242-.478-2.248-1.067-2.248s-1.067 1.006-1.067 2.248c0 1.242.478 2.249 1.067 2.249Z" fill="#FFB8B8"/><path d="m155.111 210.2 10.817 5.156 1.983-4.603c-.342-1.682-1.057-3.256-2.087-4.592l-7.445-3.547-3.268 7.586Z" fill="#134926"/><path d="M181.067 311.299c2.552 0 4.622-2.181 4.622-4.872s-2.07-4.872-4.622-4.872c-2.553 0-4.623 2.181-4.623 4.872s2.07 4.872 4.623 4.872Z" fill="#40CE81"/><path d="M27.4666 341.281c1.7673 0 3.2-1.51 3.2-3.373 0-1.863-1.4327-3.373-3.2-3.373s-3.2 1.51-3.2 3.373c0 1.863 1.4327 3.373 3.2 3.373Z" fill="#FF6584"/><path fill="#579148" d="M42.0444 355.522h.711111v37.4776H42.0444z"/><path d="M42.7556 360.02c2.7492 0 4.9778-2.349 4.9778-5.247 0-2.898-2.2286-5.247-4.9778-5.247-2.7491 0-4.9778 2.349-4.9778 5.247 0 2.898 2.2287 5.247 4.9778 5.247ZM42.0444 378.009s-.6946-15.945-14.9333-14.092l14.9333 14.092Z" fill="#579148"/></svg>

<svg viewBox="0 0 385 393" fill="none" xmlns="http://www.w3.org/2000/svg">
<path d="M89.1109 297.807L118.844 248.245L52.2551 203.363L17.8667 260.684L72.9444 297.807H89.1109Z" fill="#F0F0F0"/>
<path fill-rule="evenodd" clip-rule="evenodd" d="M56.9778 312.048H130.222V297.057H56.9778V312.048ZM129.271 311.081H57.929V298.025H129.271V311.081Z" fill="#579148"/>
<path d="M122.044 309.8C124.597 309.8 126.667 307.619 126.667 304.928C126.667 302.237 124.597 300.056 122.044 300.056C119.492 300.056 117.422 302.237 117.422 304.928C117.422 307.619 119.492 309.8 122.044 309.8Z" fill="#40CE81"/>
<path d="M107.822 309.8C110.375 309.8 112.444 307.619 112.444 304.928C112.444 302.237 110.375 300.056 107.822 300.056C105.269 300.056 103.2 302.237 103.2 304.928C103.2 307.619 105.269 309.8 107.822 309.8Z" fill="#40CE81"/>
<path d="M95.0221 309.8C97.5749 309.8 99.6443 307.619 99.6443 304.928C99.6443 302.237 97.5749 300.056 95.0221 300.056C92.4693 300.056 90.3999 302.237 90.3999 304.928C90.3999 307.619 92.4693 309.8 95.0221 309.8Z" fill="#40CE81"/>
<path d="M81.5111 309.8C84.0639 309.8 86.1334 307.619 86.1334 304.928C86.1334 302.237 84.0639 300.056 81.5111 300.056C78.9584 300.056 76.8889 302.237 76.8889 304.928C76.8889 307.619 78.9584 309.8 81.5111 309.8Z" fill="#40CE81"/>
<path d="M67.9999 309.8C70.5527 309.8 72.6221 307.619 72.6221 304.928C72.6221 302.237 70.5527 300.056 67.9999 300.056C65.4471 300.056 63.3777 302.237 63.3777 304.928C63.3777 307.619 65.4471 309.8 67.9999 309.8Z" fill="#40CE81"/>
<path d="M218.729 138.858V100.574H236.889V81.9361H148V175.63H223.986V166.469C223.986 163.021 225.285 159.713 227.599 157.274C229.913 154.836 233.05 153.466 236.322 153.466H236.889V138.858H218.729Z" fill="#F0F0F0"/>
<rect width="29.2501" height="30.6416" transform="matrix(0.967158 -0.254175 0.230189 0.973146 33.9729 7.43466)" fill="#F0F0F0"/>
<rect x="257.511" y="324.041" width="59.7333" height="12.7424" fill="#40CE81"/>
<rect x="241.867" y="259.58" width="87.4667" height="11.9928" fill="#F0F0F0"/>
<rect x="0.0888672" y="392.25" width="372.622" height="0.749552" fill="#579148"/>
<path fill-rule="evenodd" clip-rule="evenodd" d="M235.492 393H344.242C351.321 392.991 357.059 386.947 357.067 379.488V166.655C357.059 159.196 351.321 153.152 344.242 153.143H235.492C228.412 153.152 222.675 159.196 222.667 166.655V379.488C222.675 386.947 228.412 392.991 235.492 393ZM223.623 166.655C223.631 159.753 228.94 154.159 235.492 154.151H344.242C350.793 154.159 356.103 159.753 356.11 166.655V379.488C356.103 386.391 350.793 391.984 344.242 391.992H235.492C228.94 391.984 223.631 386.391 223.623 379.488V166.655Z" fill="#579148"/>
<path fill-rule="evenodd" clip-rule="evenodd" d="M274.578 160.639C274.578 162.295 275.851 163.637 277.422 163.637C278.993 163.635 280.265 162.294 280.267 160.639C280.267 158.983 278.993 157.641 277.422 157.641C275.851 157.641 274.578 158.983 274.578 160.639ZM275.526 160.639C275.526 159.535 276.375 158.64 277.422 158.64C278.469 158.641 279.318 159.536 279.319 160.639C279.319 161.743 278.47 162.638 277.422 162.638C276.375 162.638 275.526 161.743 275.526 160.639Z" fill="#579148"/>
<rect x="284.533" y="159.889" width="21.3333" height="0.749552" fill="#579148"/>
<path d="M349.244 167.385V207.861C328.037 207.86 310.845 189.739 310.844 167.385H349.244Z" fill="#40CE81"/>
<path fill-rule="evenodd" clip-rule="evenodd" d="M231.2 379.508H349.244V167.385H231.2V379.508ZM348.289 378.5H232.156V168.393H348.289V378.5Z" fill="#579148"/>
<path opacity="0.1" d="M321.156 205.612C328.421 205.612 334.311 199.404 334.311 191.745C334.311 184.087 328.421 177.879 321.156 177.879C313.89 177.879 308 184.087 308 191.745C308 199.404 313.89 205.612 321.156 205.612Z" fill="black"/>
<path d="M319.022 207.111C326.288 207.111 332.178 200.903 332.178 193.245C332.178 185.586 326.288 179.378 319.022 179.378C311.757 179.378 305.867 185.586 305.867 193.245C305.867 200.903 311.757 207.111 319.022 207.111Z" fill="#40CE81"/>
<rect x="236.178" y="175.63" width="18.4889" height="6.74597" fill="#579148"/>
<rect x="246.133" y="243.09" width="18.4889" height="6.74597" fill="#579148"/>
<path fill-rule="evenodd" clip-rule="evenodd" d="M246.844 269.324H335.022V256.582H246.844V269.324ZM334.064 268.344H247.803V257.562H334.064V268.344Z" fill="#579148"/>
<rect x="241.867" y="297.807" width="87.4667" height="11.9928" fill="#F0F0F0"/>
<rect x="246.133" y="280.567" width="18.4889" height="6.74597" fill="#579148"/>
<path fill-rule="evenodd" clip-rule="evenodd" d="M246.844 307.551H335.022V294.809H246.844V307.551ZM334.064 306.571H247.803V295.789H334.064V306.571Z" fill="#579148"/>
<path fill-rule="evenodd" clip-rule="evenodd" d="M260.355 333.785H320.8V320.293H260.355V333.785ZM319.841 332.822H261.315V321.257H319.841V332.822Z" fill="#579148"/>
<path d="M331.467 264.452C331.466 266.507 330.243 268.341 328.409 269.036C326.575 269.732 324.524 269.139 323.282 267.555L323.278 267.55C322.068 266.004 321.881 263.834 322.805 262.083C323.73 260.331 325.578 259.355 327.462 259.624C329.346 259.892 330.882 261.35 331.333 263.297C331.333 263.298 331.333 263.3 331.334 263.301C331.335 263.302 331.336 263.302 331.337 263.302C331.423 263.679 331.466 264.065 331.467 264.452Z" fill="#40CE81"/>
<path opacity="0.1" d="M331.467 264.171C331.466 266.344 330.212 268.284 328.33 269.02C326.449 269.755 324.345 269.129 323.071 267.453L323.066 267.448C322.979 267.05 322.934 266.642 322.933 266.232C322.934 264.059 324.188 262.119 326.07 261.383C327.951 260.648 330.055 261.274 331.329 262.95C331.329 262.951 331.33 262.952 331.331 262.953C331.331 262.954 331.333 262.955 331.334 262.955C331.422 263.353 331.466 263.761 331.467 264.171Z" fill="black"/>
<path d="M328.978 271.573C331.53 271.573 333.6 269.391 333.6 266.701C333.6 264.01 331.53 261.828 328.978 261.828C326.425 261.828 324.355 264.01 324.355 266.701C324.355 269.391 326.425 271.573 328.978 271.573Z" fill="#40CE81"/>
<path d="M331.467 301.929C331.466 303.984 330.243 305.818 328.409 306.514C326.575 307.209 324.524 306.617 323.282 305.033L323.278 305.028C322.068 303.481 321.881 301.312 322.805 299.56C323.73 297.809 325.578 296.833 327.462 297.101C329.346 297.37 330.882 298.827 331.333 300.775C331.333 300.776 331.333 300.777 331.334 300.778C331.335 300.779 331.336 300.78 331.337 300.78C331.423 301.156 331.466 301.542 331.467 301.929Z" fill="#40CE81"/>
<path opacity="0.1" d="M331.467 302.398C331.466 304.571 330.212 306.511 328.33 307.247C326.449 307.982 324.345 307.356 323.071 305.68L323.066 305.675C322.979 305.277 322.934 304.869 322.933 304.459C322.934 302.286 324.188 300.346 326.07 299.61C327.951 298.875 330.055 299.501 331.329 301.177C331.329 301.178 331.33 301.179 331.331 301.18C331.331 301.181 331.333 301.182 331.334 301.182C331.422 301.58 331.466 301.988 331.467 302.398Z" fill="black"/>
<path d="M328.978 309.8C331.53 309.8 333.6 307.619 333.6 304.928C333.6 302.237 331.53 300.056 328.978 300.056C326.425 300.056 324.355 302.237 324.355 304.928C324.355 307.619 326.425 309.8 328.978 309.8Z" fill="#40CE81"/>
<rect x="224.089" y="105.922" width="24.8889" height="26.2343" fill="#F0F0F0"/>
<path fill-rule="evenodd" clip-rule="evenodd" d="M315.111 118.664C315.111 121.976 317.658 124.66 320.8 124.66C323.94 124.657 326.485 121.974 326.489 118.664C326.489 115.352 323.942 112.668 320.8 112.668C317.658 112.668 315.111 115.352 315.111 118.664ZM316.059 118.664C316.059 115.904 318.182 113.667 320.8 113.667C323.417 113.67 325.538 115.906 325.541 118.664C325.541 121.424 323.418 123.661 320.8 123.661C318.182 123.661 316.059 121.424 316.059 118.664Z" fill="#579148"/>
<path fill-rule="evenodd" clip-rule="evenodd" d="M182.844 209.36H194.933V196.617H182.844V209.36ZM194.003 208.38H183.774V197.598H194.003V208.38Z" fill="#579148"/>
<path fill-rule="evenodd" clip-rule="evenodd" d="M372 307.551H384.089V294.809H372V307.551ZM383.159 306.571H372.93V295.789H383.159V306.571Z" fill="#579148"/>
<path d="M138.756 219.782L140.887 221L148.141 225.15L159.851 231.846L166.675 218.408C167.973 215.857 168.262 212.864 167.479 210.087C166.695 207.31 164.903 204.979 162.498 203.606C157.276 200.613 150.831 201.541 146.549 205.903L146.546 205.906C145.519 206.953 144.652 208.163 143.978 209.494L138.756 219.782Z" fill="#134926"/>
<path d="M170.756 354.833L169.383 371.983L164.233 372.762L160.8 353.274L170.756 354.833Z" fill="#FFB8B8"/>
<path d="M162.473 373.226C162.473 373.226 169.282 369.379 170.715 372.456C170.715 372.456 169.64 381.688 173.941 382.842C178.241 383.996 180.033 392.074 173.941 392.843C167.848 393.612 163.906 391.304 161.756 391.304C159.605 391.304 161.756 383.227 161.756 383.227L162.473 373.226Z" fill="#134926"/>
<path d="M127.378 354.833L128.751 371.983L133.9 372.762L137.333 353.274L127.378 354.833Z" fill="#FFB8B8"/>
<path d="M136.372 373.226C136.372 373.226 129.563 369.379 128.129 372.456C128.129 372.456 129.204 381.688 124.904 382.842C120.603 383.996 118.811 392.074 124.904 392.843C130.996 393.612 134.939 391.304 137.089 391.304C139.239 391.304 137.089 383.227 137.089 383.227L136.372 373.226Z" fill="#134926"/>
<path d="M156.178 222.852C161.48 222.852 165.778 218.321 165.778 212.733C165.778 207.144 161.48 202.614 156.178 202.614C150.876 202.614 146.578 207.144 146.578 212.733C146.578 218.321 150.876 222.852 156.178 222.852Z" fill="#FFB8B8"/>
<path d="M127.378 231.696L134.84 244.21L143.725 243.451L158.295 244.589C158.295 244.589 159.67 241.654 160.793 238.799C161.408 237.373 161.881 235.882 162.204 234.351C162.559 231.696 157.584 229.042 157.584 229.042C157.584 229.042 157.389 229.004 157.062 228.921C156.628 228.811 155.96 228.629 155.228 228.363C153.576 227.764 151.589 226.748 151.187 225.25C150.477 222.596 155.807 218.804 155.807 218.804L149.411 212.358C149.411 212.358 143.728 220.78 136.827 222.698C136.427 222.811 136.021 222.9 135.612 222.964C135.59 222.968 135.573 222.971 135.551 222.975C128.088 224.113 127.378 231.696 127.378 231.696Z" fill="#FFB8B8"/>
<path d="M131.121 228.848L127.005 232.25C127.005 232.25 123.638 248.502 124.76 253.038C125.883 257.573 124.386 261.731 124.386 262.487C124.386 263.243 121.019 291.59 121.019 291.59C121.019 291.59 114.284 306.708 121.393 305.196C128.502 303.684 125.883 288.566 125.883 288.566L134.489 262.109V239.809L131.121 228.848Z" fill="#FFB8B8"/>
<path d="M159.41 231.846L162.32 234.095L163.774 265.573L174.684 292.554C174.684 292.554 182.685 305.67 177.594 306.045C172.502 306.419 169.229 292.554 169.229 292.554L159.41 266.697L157.956 241.59L159.41 231.846Z" fill="#FFB8B8"/>
<path d="M141.411 233.346C141.411 233.346 148.584 238.651 160.061 236.756C160.061 236.756 163.288 243.577 161.495 247.366C159.702 251.155 163.647 260.25 164.364 261.387C165.082 262.523 173.33 286.017 176.2 311.406C179.069 336.794 186.959 354.225 180.145 356.499C173.33 358.772 159.343 361.425 157.909 359.151C156.474 356.877 154.322 300.417 154.322 300.417L150.377 322.016C150.377 322.016 155.757 358.772 151.812 359.53C147.867 360.288 123.12 358.014 123.838 353.467C124.555 348.92 131.728 325.047 131.728 325.047C131.728 325.047 131.369 277.302 138.542 268.207C138.542 268.207 141.411 263.281 137.466 256.839C133.521 250.397 133.88 240.166 133.88 240.166C133.88 240.166 136.749 240.166 141.411 233.346Z" fill="#134926"/>
<path d="M135.2 223.116L140.946 237.093L142.311 236.339L136.367 222.852L135.2 223.116Z" fill="#134926"/>
<path d="M155.111 228.848L159.699 239.342L160.8 239.24L160.426 237.454L156.986 229.403C156.542 229.294 155.859 229.113 155.111 228.848Z" fill="#134926"/>
<path d="M140.446 220.621C141.149 223.069 143.141 224.822 145.5 225.07C147.859 225.319 150.126 224.014 151.253 221.759C146.726 215.357 150.609 211.336 157.962 208.294C159.095 206.02 158.845 203.231 157.329 201.235C153.224 200.667 149.101 202.135 146.11 205.229L146.107 205.233L140.882 215.713C140.13 217.218 139.973 218.988 140.446 220.621Z" fill="#134926"/>
<path d="M151.2 216.106C151.789 216.106 152.267 215.099 152.267 213.857C152.267 212.615 151.789 211.609 151.2 211.609C150.611 211.609 150.133 212.615 150.133 213.857C150.133 215.099 150.611 216.106 151.2 216.106Z" fill="#FFB8B8"/>
<path d="M155.111 210.2L165.928 215.356L167.911 210.753C167.569 209.071 166.854 207.497 165.824 206.161L158.379 202.614L155.111 210.2Z" fill="#134926"/>
<path d="M181.067 311.299C183.619 311.299 185.689 309.118 185.689 306.427C185.689 303.736 183.619 301.555 181.067 301.555C178.514 301.555 176.444 303.736 176.444 306.427C176.444 309.118 178.514 311.299 181.067 311.299Z" fill="#40CE81"/>
<path d="M27.4666 341.281C29.2339 341.281 30.6666 339.771 30.6666 337.908C30.6666 336.045 29.2339 334.535 27.4666 334.535C25.6993 334.535 24.2666 336.045 24.2666 337.908C24.2666 339.771 25.6993 341.281 27.4666 341.281Z" fill="#FF6584"/>
<rect x="42.0444" y="355.522" width="0.711111" height="37.4776" fill="#579148"/>
<path d="M42.7556 360.02C45.5048 360.02 47.7334 357.671 47.7334 354.773C47.7334 351.875 45.5048 349.526 42.7556 349.526C40.0065 349.526 37.7778 351.875 37.7778 354.773C37.7778 357.671 40.0065 360.02 42.7556 360.02Z" fill="#579148"/>
<path d="M42.0444 378.009C42.0444 378.009 41.3498 362.064 27.1111 363.917L42.0444 378.009Z" fill="#579148"/>
</svg>
